icons/folder-help-outline.svg

<svg xmlns="http://www.w3.org/2000/svg" width="24" height="24" viewBox="0 0 24 24">
  <path d="M11,4 C11.2652165,4 11.5195704,4.10535684 11.7071068,4.29289322 L11.7071068,4.29289322 L13.415,6 L19,6 C20.5976809,6 21.9036609,7.24891996 21.9949073,8.82372721 L21.9949073,8.82372721 L22,9 L22,17 C22,18.6568542 20.6568542,20 19,20 L19,20 L5,20 C3.34314575,20 2,18.6568542 2,17 L2,17 L2,7 C2,5.34314575 3.34314575,4 5,4 L5,4 Z M10.585,6 L5,6 C4.44771525,6 4,6.44771525 4,7 L4,7 L4,17 C4,17.5522847 4.44771525,18 5,18 L5,18 L19,18 C19.5522847,18 20,17.5522847 20,17 L20,17 L20,9 C20,8.44771525 19.5522847,8 19,8 L19,8 L13,8 C12.7347835,8 12.4804296,7.89464316 12.2928932,7.70710678 L12.2928932,7.70710678 L10.585,6 Z M12.0001686,15 C12.5524586,15 13.0001686,15.4477 13.0001686,16 C13.0001686,16.5523 12.5524586,17 12.0001686,17 C11.4478886,17 11.0001686,16.5523 11.0001686,16 C11.0001686,15.4477 11.4478886,15 12.0001686,15 Z M12.0001686,9 C12.5537486,9 13.1555886,9.16344 13.6376686,9.525 C14.1397686,9.90158 14.5001686,10.48991 14.5001686,11.25 C14.5001686,11.69838 14.3847686,12.07994 14.1710686,12.4004 C13.9664386,12.70737 13.7009186,12.91339 13.4787086,13.06154 C13.3700286,13.134 13.2594286,13.20036 13.1657686,13.25656 L13.1657686,13.25656 C13.0591686,13.32052 12.9769786,13.37001 12.9005986,13.42093 C12.7478286,13.52279 12.6695886,13.59803 12.6242286,13.66609 C12.3944886,14.01075 11.9288386,14.10391 11.5841786,13.87417 C11.2395186,13.64442 11.1463586,13.17878 11.3760986,12.83412 C11.5807386,12.52712 11.8462486,12.32107 12.0684786,12.1729 C12.1772086,12.10041 12.2878586,12.03402 12.3815586,11.9778 L12.3815586,11.9778 C12.4880486,11.9139 12.5702386,11.86441 12.6466286,11.81349 C12.7994086,11.71162 12.8776486,11.63639 12.9229986,11.56835 C12.9593586,11.51381 13.0001686,11.42662 13.0001686,11.25 C13.0001686,11.01009 12.9022286,10.84842 12.7376686,10.725 C12.5530786,10.58656 12.2799186,10.5 12.0001686,10.5 C11.6314086,10.5 11.4046986,10.59004 11.2599386,10.68654 C11.1104886,10.78617 11.0014986,10.92438 10.9209886,11.08541 C10.7357486,11.45589 10.2852386,11.60606 9.91475858,11.42082 C9.54426858,11.23558 9.39409858,10.78507 9.57934858,10.41459 C9.74882858,10.07562 10.0148386,9.71383 10.4278886,9.43846 C10.8456386,9.15996 11.3689286,9 12.0001686,9 Z"/>
</svg>

<svg xmlns="http://www.w3.org/2000/svg" viewBox="0 0 24 24">
  <path d="M11 4a1 1 0 0 1 .7.3L13.42 6H19a3 3 0 0 1 3 2.82V17a3 3 0 0 1-3 3H5a3 3 0 0 1-3-3V7a3 3 0 0 1 3-3zm-.41 2H5a1 1 0 0 0-1 1v10a1 1 0 0 0 1 1h14a1 1 0 0 0 1-1V9a1 1 0 0 0-1-1h-6a1 1 0 0 1-.7-.3L10.58 6zM12 15a1 1 0 1 1 0 2 1 1 0 0 1 0-2zm0-6c.55 0 1.16.16 1.64.53.5.37.86.96.86 1.72a2.03 2.03 0 0 1-1.02 1.81l-.31.2-.27.16a.96.96 0 0 0-.28.25.75.75 0 0 1-1.24-.84c.2-.3.47-.5.69-.66l.31-.2c.1-.06.19-.1.27-.16.15-.1.23-.17.27-.24a.54.54 0 0 0 .08-.32c0-.24-.1-.4-.26-.53a1.26 1.26 0 0 0-.74-.22c-.37 0-.6.09-.74.19a1 1 0 0 0-.34.4.75.75 0 0 1-1.34-.68c.17-.33.43-.7.85-.97.42-.28.94-.44 1.57-.44z"/>
</svg>
